X:1
T:Title
L:1/4
M:4/4
I:linebreak $
K:D
V:1 treble nm="Voice"
V:1
"D" f f/f/ g f |"A" e3/2 A/ c d | e/e/c/e/ f e |"D" d3/2 A/ F A |"D" d d/d/ e d |1"A" c3/2 d/ c B | %6
 A c B A |"D" F3/2 A/ d e :|2"G" B3 d |"A" c3/2 A/ B c |"D" d3/2 e/ d c |:"G" B3/2 d/ c B | %12
"D" A3/2 d/ c d |"A" e c d e |"D" f3/2 d/ c d |"G" B3/2 d/ c B |"D" A3/2 d/ c d |"A" e A B c |1 %18
"D" d3/2 e/ d c :|2"D" d3/2 A/ d e |] %20
